images/svg/benefits/benefit-2.svg

<svg width="106" height="106" viewBox="0 0 106 106" fill="none" xmlns="http://www.w3.org/2000/svg">
<g id="Group 18">
<g id="Bitmap">
<circle id="Mask" cx="53" cy="53" r="53" fill="#36536B"/>
<mask id="mask0_0_5254" style="mask-type:alpha" maskUnits="userSpaceOnUse" x="0" y="0" width="106" height="106">
<circle id="Mask_2" cx="53" cy="53" r="53" fill="white"/>
</mask>
<g mask="url(#mask0_0_5254)">
</g>
</g>
<path id="Combined Shape" fill-rule="evenodd" clip-rule="evenodd" d="M41.371 50.7615C40.7386 51.3707 39.8829 51.75 38.9375 51.75C36.999 51.75 35.4219 50.1729 35.4219 48.2344C35.4219 46.2959 36.999 44.7188 38.9375 44.7188C40.876 44.7188 42.4531 46.2959 42.4531 48.2344C42.4531 48.3447 42.4385 48.451 42.4238 48.5574C42.4191 48.5917 42.4143 48.626 42.4101 48.6604L45.879 50.3947C46.5114 49.7856 47.3671 49.4062 48.3125 49.4062C48.8536 49.4062 49.3602 49.5393 49.8185 49.7587L54.5244 45.0529C54.3049 44.5945 54.1719 44.088 54.1719 43.5469C54.1719 41.6084 55.749 40.0312 57.6875 40.0312C58.4071 40.0312 59.0757 40.2501 59.6336 40.6227L63.7224 37.5569C63.6186 37.2258 63.5469 36.8806 63.5469 36.5156C63.5469 34.5771 65.124 33 67.0625 33C69.001 33 70.5781 34.5771 70.5781 36.5156C70.5781 38.4541 69.001 40.0312 67.0625 40.0312C66.3429 40.0312 65.6743 39.8124 65.1164 39.4398L61.0276 42.5056C61.1314 42.8367 61.2031 43.1819 61.2031 43.5469C61.2031 45.4854 59.626 47.0625 57.6875 47.0625C57.1464 47.0625 56.6398 46.9294 56.1815 46.71L51.4756 51.4158C51.6951 51.8742 51.8281 52.3808 51.8281 52.9219C51.8281 54.8604 50.251 56.4375 48.3125 56.4375C46.374 56.4375 44.7969 54.8604 44.7969 52.9219C44.7969 52.8116 44.8115 52.7053 44.8262 52.5989C44.8309 52.5646 44.8357 52.5303 44.8399 52.4958L41.371 50.7615ZM70.5781 70.6562H71.8281C72.4757 70.6562 73 71.1805 73 71.8281C73 72.4757 72.4757 73 71.8281 73H34.1719C33.5243 73 33 72.4757 33 71.8281C33 71.1805 33.5243 70.6562 34.1719 70.6562H35.4219V57.6094C35.4219 56.9618 35.9462 56.4375 36.5938 56.4375H41.2812C41.9288 56.4375 42.4531 56.9618 42.4531 57.6094V70.6562H44.7969V62.2969C44.7969 61.6493 45.3212 61.125 45.9688 61.125H50.6562C51.3038 61.125 51.8281 61.6493 51.8281 62.2969V70.6562H54.1719V52.9219C54.1719 52.2743 54.6962 51.75 55.3438 51.75H60.0312C60.6788 51.75 61.2031 52.2743 61.2031 52.9219V70.6562H63.5469V45.8906C63.5469 45.243 64.0712 44.7188 64.7188 44.7188H69.4062C70.0538 44.7188 70.5781 45.243 70.5781 45.8906V70.6562Z" fill="white"/>
</g>
</svg>

<svg width="106" height="106" fill="none" xmlns="http://www.w3.org/2000/svg"><circle cx="53" cy="53" r="53" fill="#36536B"/><mask id="a" style="mask-type:alpha" maskUnits="userSpaceOnUse" x="0" y="0" width="106" height="106"><circle cx="53" cy="53" r="53" fill="#fff"/></mask><path fill-rule="evenodd" clip-rule="evenodd" d="M41.371 50.761a3.498 3.498 0 0 1-2.434.989 3.52 3.52 0 0 1-3.515-3.516 3.52 3.52 0 0 1 3.516-3.515 3.52 3.52 0 0 1 3.515 3.515c0 .11-.015.217-.03.323l-.013.103 3.469 1.735a3.498 3.498 0 0 1 2.434-.989c.54 0 1.047.133 1.505.353l4.706-4.706a3.472 3.472 0 0 1-.352-1.506 3.52 3.52 0 0 1 3.516-3.516c.72 0 1.388.22 1.946.592l4.088-3.066a3.462 3.462 0 0 1-.175-1.041A3.52 3.52 0 0 1 67.063 33a3.52 3.52 0 0 1 3.515 3.516 3.52 3.52 0 0 1-3.516 3.515c-.72 0-1.388-.219-1.946-.591l-4.088 3.066c.103.33.175.676.175 1.04a3.52 3.52 0 0 1-3.516 3.517 3.473 3.473 0 0 1-1.505-.353l-4.706 4.706c.22.458.352.965.352 1.506a3.52 3.52 0 0 1-3.516 3.516 3.52 3.52 0 0 1-3.515-3.516c0-.11.015-.217.03-.323l.013-.103-3.469-1.735zm29.207 19.895h1.25a1.171 1.171 0 1 1 0 2.344H34.172a1.171 1.171 0 1 1 0-2.344h1.25V57.61c0-.647.524-1.172 1.172-1.172h4.687c.648 0 1.172.525 1.172 1.172v13.047h2.344v-8.36c0-.647.524-1.171 1.172-1.171h4.687c.648 0 1.172.524 1.172 1.172v8.36h2.344V52.921c0-.648.524-1.172 1.172-1.172h4.687c.648 0 1.172.524 1.172 1.172v17.734h2.344V45.891c0-.648.524-1.172 1.172-1.172h4.687c.648 0 1.172.524 1.172 1.172v24.765z" fill="#fff"/></svg>
